!!!!SEGMENT: pl-wnifc--13846--148_anonim--piesni-polskie-i-ruskie-ludu-galicyjskiego-148-corus-moja-dziecie-moje.krn
!!!cenid: 18xx:3370
!!!COM: Anonim
!!!COM-rismid: pe30004985
!!!CDT:
!!!CNT:
!!!GTL: Pieśni polskie i ruskie ludu galicyjskiego
!!!OTL: 148. Córuś moja, dziecię moje
!!!PDT: 1833
!!!AGN:
!!!SMS-siglum: PL-Wnifc
!!!SMS-shelfmark: 13846
!!!SMS-shelfwork: 148 G
!!!SMS-variant:
!!!SMS-altvar:
!!!NIFC-rismid: 1001039681
!!!URL-scan: http://repozytorium.nifc.pl/skany/pl-wnifc-nut--13846
!!!ONB-nifc:
!!!OMD: alla Mazur ma p[i]u moderato
!!!AIN: 1 piano 1 vox
!!!key: B-
**kern	**kern	**dynam	**kern	**text
*part2	*part2	*part2	*part1	*part1
*group2	*group2	*	*group1	*group1
*staff3	*staff2	*	*staff1	*staff1
*I"[FORTEPIAN.]	*I"[FORTEPIAN.]	*	*I"[GŁOS.]	*
*I'	*I'	*	*I'	*
*Ipiano	*Ipiano	*	*Ivox	*
*ICklav	*ICklav	*	*ICvox	*
*IGacmp	*IGacmp	*	*IGsolo	*
*clefF4	*clefG2	*	*clefG2	*
*k[b-e-]	*k[b-e-]	*	*k[b-e-]	*
*B-:	*B-:	*	*B-:	*
*M3/8	*M3/8	*	*M3/8	*
*>[A,B,B]	*>[A,B,B]	*>[A,B,B]	*>[A,B,B]	*>[A,B,B]
=1-	=1-	=1-	=1-	=1-
*>A	*>A	*>A	*>A	*>A
!	!	!	!LO:TX:a:B:t=E.289.	!
*^	*	*	*	*
!LO:N:n=1:vis=4.	!	!	!	!	!
4BB- 4BBB-/^	4BBB-/yy	16b-/LL 16d`/	.	16b-\	Có-
.	.	16cc/JJ 16e-`/	.	16cc\	-ruś
.	.	8dd/L 8f`/	.	8dd\	mo-
8rEE	8ryy	8dd/J 8f`/	.	8dd\	-ja,
=2	=2	=2	=2	=2	=2
!LO:N:n=1:vis=4.	!	!	!	!	!
4BB- 4BBB-/^	4BBB-/yy	16ee-\LL 16g`\	.	16ee-\	dzié-
.	.	16dd/JJ 16f`/	.	16dd\	-cię
.	.	8cc/L 8e-`/	.	8cc\	mo-
8rEE	8ryy	8dd/J 8f`/	.	8dd\	-je,
!!linebreak:original
=3	=3	=3	=3	=3	=3
*	*	*^	*	*	*
!LO:N:n=1:vis=4.	!	!	!	!	!	!
4BB- 4BBB-/^	4BBB-/yy	16b-/LL	4.d\	.	16b-/	co
.	.	16a/JJ	.	.	16a/	u
.	.	8g/L	.	.	8g/	cie-
8rEE	8ryy	8f/J	.	.	8f/	-bie
*v	*v	*	*	*	*	*
=4	=4	=4	=4	=4	=4
8C/ 8CC/	(<16g/LL 16en/	8B-\	.	(16g/LL	szep-
.	16a/JJ)	.	.	16a/JJ)	.
4F/ 4FF/^>	4f/ 4A/	4A\	.	4f/	-cze?
*	*v	*v	*	*	*
=5	=5	=5	=5	=5
*^	*	*	*	*
!LO:N:n=1:vis=4.	!	!	!	!	!
4BB- 4BBB-/^	4BBB-/yy	16b-/LL 16d/	.	16b-\	Pa-
.	.	16cc/JJ 16e-/	.	16cc\	-ni
.	.	8dd/ 8f/L	.	8dd\	mat-
8rEE	8ryy	8dd/ 8f/J	.	8dd\	-ko
!!linebreak:original
=6	=6	=6	=6	=6	=6
!LO:N:n=1:vis=4.	!	!	!	!	!
4BB- 4BBB-/	4BBB-/yy	16ee-\LL 16g\	.	16ee-\	do-
.	.	16dd/JJ 16f/	.	16dd\	-bro-
.	.	8cc/L 8e-/	.	8cc\	-dziéj-
8rEE	8ryy	8dd/J 8f/	.	8dd\	-ko
=7	=7	=7	=7	=7	=7
*	*	*^	*	*	*
!LO:N:n=1:vis=4.	!	!	!	!	!	!
4BB- 4BBB-/	4BBB-/yy	16b-/LL	4.B-\	.	16b-/	ko-
.	.	16a/JJ	.	.	16a/	-tek
.	.	8g/L	.	.	8g/	mle-
8rEE	8ryy	8f/J	.	.	8f/	-ko
*v	*v	*	*	*	*	*
=8	=8	=8	=8	=8	=8
8C/ 8CC/	16g/LL 16en/ 16B-/	8B-\	.	16g/LL	chlep-
.	16a/JJ	.	.	16a/JJ	.
4F/ 4FF/	4f/ 4A/	4ryy	.	4f/	-cze;
*	*v	*v	*	*	*
!!linebreak:original
=9!|:	=9!|:	=9!|:	=9!|:	=9!|:
*>B	*>B	*>B	*>B	*>B
!	!	!LO:DY:b:rj	!	!
8BB-/L 8BBB-/	(16dd\LL 16b-\ 16f\	f	(16dd\LL	oj
.	16ff\JJ 16dd\)	.	16ff\JJ)	.
8r	4ff\ 4dd\	.	4ff\	kot
8B-/J 8BB-/	.	.	.	.
=10	=10	=10	=10	=10
8BB-/L 8BBB-/	16ff\LL 16dd\	.	16ff\	pani-
.	16ee-\JJ 16cc\	.	16ee-\	-ni
8r	8ee-\L 8cc\	.	8ee-\	mat-
8B-/J 8BB-/	8dd\J 8b-\	.	8dd\	-ko
=11	=11	=11	=11	=11
8F/L 8FF/	16cc\LL 16a\	.	(16cc\LL	kot
.	16ee-\JJ 16cc\	.	16ee-\JJ)	.
8r	4ee-\ 4cc\	.	4ee-\	kot
8F/J 8FF/	.	.	.	.
!!pagebreak:original
=12	=12	=12	=12	=12
8F/ 8FF/	16ee-\LL 16cc\	.	16ee-\	na-
.	16gg\JJ 16ee-\	.	16gg\	-ro-
8r	(16gg\LL 16ee-\	.	(16gg\LL	-bił
.	16ff\J 16dd\)	.	16ff\JJ)	.
8F/ 8FF/	8ff\J 8dd\	.	8ff\	mi
=13	=13	=13	=13	=13
8F/ 8FF/	16ff\LL 16cc\ 16a\	.	16ff\	w_po-
.	16ff\JJ 16cc\ 16a\	.	16ff\	-ko-
8e-\ 8c\ 8F\	8ff\ 8cc\ 8a\	.	8ff\	-i-
8F/ 8FF/	8a/ 8e-/	.	8a/	-ku
=14	=14	=14	=14	=14
!LO:TX:t=P:problem:mixed beam	!	!	!	!
8BB-/L 8BBB-/	8b-/L 8d/	.	8b-\	łos-
8B-\J	8b-/J 8d/	.	8b-\	-kot
8r	8r	.	8r	.
=:|!	=:|!	=:|!	=:|!	=:|!
*-	*-	*-	*-	*-
!!!system-decoration: g1{(g2)}
!!!RDF**kern: > = above
!!!RDF**kern: < = below
!!!RDF**kern: | = vertical stroke
!!!ENC: Katarzyna Serwa
!!!END: 2021-11-12
